X:443
T:The Sunny Side Of The Mountain
C:Peter Rowan & Tony Rice - Quartet
N:mandolin: Sharon Gilchrist - Transcribed by Philippe Colleu
R:bluegrass
L:1/8
Q:1/4=180
M:4/4
K:C
"(117 bpm)""A"ze Bc A^F EF | A2 ^FA2e Ae | B^c A3e cd | ed e^f fg eg | ga aa ag ed | 
"D"ee ^d=d cA cd | A2 {^F}A2 AA Ae | "E"B^G AB ^cd ed | eg ^f/g/f eB ce | cB A^F ED B,^C | 
"A"DE ^F^G AG AB | BA ^GA ^cA GA | dA ^GA ^d/e/e ee | B/z/c A2 ee2e | e^f eB ce cB | 
AE FA FE DF | "D"^FF d2 FF AA | ^f3e2e2e | "E"e^f ef f/^g/f e2 | ^gb b2 bg e2 | 
ee a^f ba ba | "A"c'b a^f ee c^c | ae ga eB c/B/A | cB A^F ED E/F/F | A8 | 


